X:118
T:Off To Charleston
S:American Veteran Fifer #118
C:H.C. Langston Co.E.11th O.V.I. Co.D.147th O.V.I.
M:2/4
L:1/8
Q:1/8=180
K:D 
%%MIDI program 72
%%MIDI transpose 8
%%MIDI ratio 3 1
((3D/E/F/) | GG/A/ Be | d/B/G/B/ A/G/E/G/ | DG/A/ Be | d/B/A/B/ GE/F/ |
GG/A/ Be | d/B/G/B/ Ad/f/ | gg/e/ dd/c/ | d/G/A/B/ G :|
|: d/f/ | gfe>d | B/A/G/B/ Ae/f/ | gf e>d | ea ae/f/ |
gf e>d | B/A/G/B/ A/G/E/G/ | DG/A/ Bg/e/ | d/B/A/B/ G :|



